X:1
T:[ID 6-48b]
T:[ID 6-48b]
T:Bezeichnung standardisiert: Menuett Menuet 18.
T:Urheber unbekannt Datum in der hier transkribierten schriftlichen Quelle: 1775
C:Urheber unbekannt
C:Datum in der hier transkribierten schriftlichen Quelle: 1775
L:1/8
M:3/4
K:G
V:1 treble 
V:1
 B2 |{c} B2 G2 A2 | B2 B2 c2 |{c} B2 A2 G2 | G2 F2 G2 | G2 F2 A2 | A2 G2 B2 | B2 cBAG |{G} F4 :: %9
 d2 | d2 e2 G2 | G2 F2 d2 | d2 e2 G2 | G2 F2 A2 | A2 G2 c2 | c2 B2 A2 |{F} GD B,2 A,2 | B,4 :| %18

